src/assets/icons/decathlon.svg

<svg width="116" height="28" viewBox="0 0 116 28" fill="none" xmlns="http://www.w3.org/2000/svg">
<path d="M115.886 -0.253967H0V28.254H115.886V-0.253967Z" fill="#8F90A6"/>
<path fill-rule="evenodd" clip-rule="evenodd" d="M46.2961 6.46783L40.637 16.0671C40.5211 16.2795 39.4009 17.9212 37.1218 18.0757C34.862 18.1723 32.9499 16.1057 32.9885 13.8845C33.0658 11.6827 34.7654 9.90578 37.0252 9.86715C38.9566 9.90578 40.3666 11.335 40.3473 11.3544C40.7529 11.702 41.0233 11.9531 41.3323 12.3973L43.3989 8.90144C43.032 8.53446 42.8775 8.36064 42.4139 8.03229C41.2357 7.00863 39.5168 6.19743 37.1025 6.12017C34.7848 6.08155 32.4284 7.00863 30.6322 9.26841C29.5119 10.6977 29.0677 11.9917 29.0098 13.8845C29.0291 16.1057 29.8596 17.9019 31.0764 19.196C33.1623 21.3012 35.6732 21.8034 37.0059 21.8034C38.9373 21.7262 40.3473 21.2626 41.68 20.4128C42.1049 20.1231 42.5491 19.7561 43.032 19.2732H46.6244V21.4558H50.3135V6.46783H46.2961ZM46.6631 16.1443H44.693L46.6631 12.745V16.1443Z" fill="white"/>
<path fill-rule="evenodd" clip-rule="evenodd" d="M53.9636 21.5529V10.0222H51.0664V6.52631H60.8008V10.0222H57.8071V21.5529H53.9636Z" fill="white"/>
<path fill-rule="evenodd" clip-rule="evenodd" d="M69.2409 15.7972H65.3008V21.5529H61.4766V6.52631H65.3008V12.224H69.2409V6.52631H73.1038V21.5529H69.2409V15.7972Z" fill="white"/>
<path fill-rule="evenodd" clip-rule="evenodd" d="M104.972 6.5262V14.87L99.2165 6.5262H95.7592V11.6059C95.3729 10.447 94.6776 9.38472 93.7119 8.47695C92.1861 7.04769 90.1967 6.2558 88.1107 6.2558C85.8896 6.2558 83.9388 6.98974 82.3937 8.45763C80.8486 9.90621 80.018 11.8183 80.018 13.885C80.018 15.5267 80.443 16.9753 81.2542 18.2307H78.3184V6.5262H74.4941V21.5527H82.7993V19.969C84.2479 21.2051 86.0441 21.8231 88.0914 21.8231C90.274 21.8231 92.3599 20.9926 93.8664 19.4861C94.7549 18.617 95.3729 17.574 95.7592 16.4344V21.5527H99.6028V13.1896L105.455 21.5527H108.835V6.5262H104.972ZM88.0721 18.0955C85.9089 18.0955 83.9388 16.2799 83.9388 13.9043C83.9388 11.7024 85.7737 9.94483 88.1107 9.94483C90.3126 9.94483 92.1474 11.7024 92.1474 13.9043C92.1668 16.3765 90.3319 18.0955 88.0721 18.0955Z" fill="white"/>
<path fill-rule="evenodd" clip-rule="evenodd" d="M29.0288 9.77024V6.44818H20.4918V12.6288C20.2407 10.8325 19.4875 9.38396 18.3093 8.30235C16.6676 6.81515 14.9293 6.50612 12.4377 6.50612H7.06836V21.5327H12.9592C15.1611 21.5327 16.6483 21.243 18.3286 19.6785C19.5068 18.5583 20.2407 17.1483 20.4918 15.4873V21.4554H29.0288V18.2299H24.2581V15.4487H28.3914V12.2232H24.2581V9.78956H29.0288V9.77024ZM12.4571 18.2492H10.9119V9.75093H12.4377C15.2576 9.75093 16.7835 11.2768 16.7835 13.9808C16.7835 16.9359 15.3928 18.2492 12.4571 18.2492Z" fill="white"/>
</svg>

<svg width="116" height="28" fill="none" xmlns="http://www.w3.org/2000/svg"><path d="M115.886-.254H0v28.508h115.886V-.254Z" fill="#8F90A6"/><path fill-rule="evenodd" clip-rule="evenodd" d="m46.296 6.468-5.659 9.6c-.116.211-1.236 1.853-3.515 2.008-2.26.096-4.172-1.97-4.133-4.192.077-2.201 1.776-3.978 4.036-4.017 1.932.039 3.342 1.468 3.322 1.487.406.348.676.6.985 1.043L43.4 8.901c-.367-.367-.522-.54-.985-.869-1.178-1.023-2.897-1.835-5.312-1.912-2.317-.038-4.674.889-6.47 3.148-1.12 1.43-1.564 2.724-1.622 4.616.02 2.222.85 4.018 2.066 5.312 2.086 2.105 4.597 2.607 5.93 2.607 1.931-.077 3.341-.54 4.674-1.39.425-.29.87-.657 1.352-1.14h3.592v2.183h3.69V6.468h-4.018Zm.367 9.676h-1.97l1.97-3.399v3.4ZM53.964 21.553v-11.53h-2.898V6.525h9.735v3.496h-2.994v11.53h-3.843ZM69.24 15.797H65.3v5.756h-3.823V6.526H65.3v5.698h3.94V6.526h3.863v15.027H69.24v-5.756ZM104.972 6.526v8.344l-5.755-8.344h-3.458v5.08c-.386-1.159-1.081-2.221-2.047-3.129a8.171 8.171 0 0 0-5.601-2.221c-2.221 0-4.172.734-5.717 2.202-1.545 1.448-2.376 3.36-2.376 5.427 0 1.642.425 3.09 1.236 4.346h-2.936V6.526h-3.824v15.027H82.8v-1.584c1.449 1.236 3.245 1.854 5.292 1.854 2.183 0 4.269-.83 5.775-2.337.889-.869 1.507-1.912 1.893-3.052v5.119h3.844V13.19l5.852 8.363h3.38V6.526h-3.863Zm-16.9 11.57c-2.163 0-4.133-1.816-4.133-4.192 0-2.202 1.835-3.96 4.172-3.96 2.202 0 4.036 1.758 4.036 3.96.02 2.473-1.815 4.192-4.075 4.192Z" fill="#fff"/><path fill-rule="evenodd" clip-rule="evenodd" d="M29.029 9.77V6.448h-8.537v6.18c-.251-1.796-1.005-3.244-2.183-4.326-1.641-1.487-3.38-1.796-5.871-1.796h-5.37v15.027h5.891c2.202 0 3.69-.29 5.37-1.855 1.178-1.12 1.912-2.53 2.163-4.19v5.967h8.537V18.23h-4.77v-2.781h4.132v-3.226h-4.133V9.79h4.77v-.02Zm-16.572 8.48h-1.545v-8.5h1.526c2.82 0 4.345 1.527 4.345 4.23 0 2.956-1.39 4.27-4.326 4.27Z" fill="#fff"/></svg>
